X:1
T:Psalm 38
T:John Dowland
T:Psalm 38
C:John Dowland
%%score [ 1 2 3 4 ]
L:1/8
M:4/4
K:Dmin
V:1 treble nm="SOPRANO" snm="S."
V:2 treble nm="ALTO" snm="A."
V:3 treble-8 transpose=-12 nm="TENOR" snm="T."
V:4 bass nm="BASS" snm="B."
V:1
 A8 | D4 F4 | F4 E4 | F8 | F4 F4- | F8 | A8 | A4 B4 | c6 _e2 | d8 | F8 | E4 D4 | G4 B4 | A8 | %14
w: Put|me not|to re-|buke|O Lord|_|In|thy pro-|vok- ed|ire:|Nay|in thy|hea- vy|wrath|
 A4 A4- | A4 d4 | c8 | B8 | A6 A2 | G8 |] %20
w: O Lord|_ Cor-|rect|me|I de-|sire|
V:2
 A,8 | B,4 C4 | B,6 G,2 | C8 | C4 C4- | C8 | D8 | C4 F4 | _E6 C2 | F8 | D8 | E4 F4 | D4 D4 | D8 | %14
w: Put|me not|to re-|buke|O Lord|_|In|thy pro-|vok- ed|ire:|Nay|in thy|hea- vy|wrath|
 D4 D4- | D4 D4 | F8 | D8 | D6 C2 | =B,8 |] %20
w: O Lord|_ Cor-|rect|me|I de-|sire|
V:3
 F8 | F4 F4 | G4 G4 | A8 | A4 A4- | A8 | F8 | F4 F4 | G4 A4 | B8 | A8 | A4 A4 | G4 G4 | ^F8 | %14
w: Put|me not|to re-|buke|O Lord|_|In|thy pro-|vok- ed|ire:|Nay|in thy|hea- vy|wrath|
 ^F4 F4- | F4 G4 | A8 | G4 G4 | ^F8 | G8 |] %20
w: O Lord|_ Cor-|rect|me I|de-|sire|
V:4
 D,8 | B,,4 A,,4 | G,,4 G,,4 | F,,8 | F,,4 F,,4- | F,,8 | D,8 | F,4 D,4 | _E,4 C,4 | B,,8 | D,8 | %11
w: Put|me not|to re-|buke|O Lord|_|In|thy pro-|vok- ed|ire:|Nay|
 ^C,4 D,4 | B,,4 G,,4 | D,8 | D,4 D,4- | %15
w: in thy|hea- vy|wrath|O Lord|
 D,4"^2.Thine arrows do stick fast in me,Thy hand doth press me sore:And in my flesh no health at all Appeareth any more  3.And all this is, by reason of Thy wrath that I am in:Nor any rest is in my bones by reason of my sin  4.And I in careful wise am brought to trouble and distress That I go wailing all the day my doleful heaviness" B,,4 | %16
w: _ Cor-|
 A,,4 F,,4 | G,,8 | D,8 | G,,8 |] %20
w: rect me|I|de-|sire|

